X: 16531
T: Halling
R: barndance
M: 4/4
K: Dmajor
|:A,6C2|"D"D4D2F2|"A"E4E2C2|"D"D4D2F2|
"A"E4E2C2|"D"D4D2F2|"A"E6C2|"D"(C4D4)|D8:|
|:"D"D2E2 F2G2|"^am"A4A2=c2|"D"A6d2|
"A"c2d2 e2f2|"D"d8|a4a4|"A"g2a2 g2f2|
"D"a4a4|"A"g2a2 g2f2|"D"d4f2d2|"A"A4g4|
"D"f2d2"A"e2c2|A4g4|"D"f2d2"A"e2c2|A4A2c2|
"^em"B4B2G2|"D"A4A2F2|"A"E4E2C2|"D"C4D4|D8:|

